X: 1135
T: An Bóithrín Buí
R: waltz
M: 3/4
K: Amajor
E2|A4GA|B4AG|A4AB|c4cd|
e2d2c2|d2B2A2|G3 AB2|E2F2G2|
A4GA|B4AG|A4AB|c4cd|
e2d2c2|d2B2G2|A4A2|A4cd|
e4ea|e4dc|d4dg|d4cB|
c2B2c2|d2B2A2|G3 AB2|E2F2G2|
A4GA|B4AG|A4AB|c4cd|
e2d2c2|d2B2G2|A6|A6|

